src/assets/healthPage/sameday.svg

<svg height="88" viewBox="0 0 88 88" width="88" xmlns="http://www.w3.org/2000/svg" xmlns:xlink="http://www.w3.org/1999/xlink"><mask id="a" fill="#fff"><path d="m0 0h88v88h-88z" fill="#fff" fill-rule="evenodd"/></mask><g fill="none" fill-rule="evenodd"><g fill="#a7958a" mask="url(#a)"><g transform="translate(12.800002 15.200002)"><path d="m60.0052575 13.2188796c.1474039.0162294.2951424.0473499.4417097.0948672 1.1623323.3754532 1.799967 1.6222792 1.4243632 2.7844442l-3.6546626 11.3081028c-.3756038 1.1623323-1.6222792 1.8001343-2.7844442 1.4243464-1.1623323-.3756205-1.799967-1.6222792-1.4243464-2.7846115l3.6546458-11.3081028c.3282706-1.0155977 1.3217828-1.6308123 2.3427345-1.5190463"/><path d="m45.5598446 19.5527289c.2313957.0252644.4624567.08784.6854866.1905709l10.7927749 4.9744208c1.1092936.5113125 1.5940031 1.8248969 1.0826907 2.9341905-.5111284 1.1092937-1.8248969 1.5940032-2.9341905 1.082858l-10.7927749-4.9744208c-1.1092936-.5113124-1.5941704-1.8250641-1.082858-2.9343578.4085815-.8862637 1.3294793-1.3739848 2.2488712-1.2732616"/><path d="m10.2476643 50.6859005c8.8101006 7.4682401 20.9365376 8.6764165 30.7970372 3.9553095 1.241472-.5943003 1.6492169-2.1630389.8541562-3.2865543-.6279473-.8872676-1.8051705-1.188768-2.7834571-.7147666-4.0570366 1.9659428-8.5415612 2.7123317-13.0485059 2.2190893-13.2146491-1.4462647-22.788874-13.3737649-21.34260938-26.5882466 1.44626463-13.214649 13.37376488-22.78887398 26.58824658-21.34260936 10.6945614 1.17036338 20.0308821 9.64918176 21.3650295 21.51561226l4.4977424.4922386c-1.6997458-21.02588336-23.8024639-32.78355964-41.7775387-23.3078828-17.90279511 9.4381984-20.58785465 33.9708218-5.1501008 47.05781"/></g></g><path d="m31.4277353 44.1617313c.0720135.1793927.1121383.3699856.1185655.563186 0 .2223103-.0889241.4446205-.1333862.6521101-.0981896.3953211-.172428.7962086-.2223103 1.2004755-.4020695 3.861635 1.3519014 7.6315332 4.5647709 9.8112932.3929284.2673016.858682.4070277 1.3338617.4001585h.2371309c1.1786142-.1966895 2.039447-1.2208921 2.0304338-2.4157716v-2.9641369c-.020079-.4600014.1436181-.9091019.455-1.2482858.311382-.3391839.7448794-.5405989 1.2049167-.5598377.9526891.1369676 1.641808.9806552 1.5858133 1.9415097v2.8603921c.0120104 1.2563031.9849678 2.2936948 2.2379233 2.3861302.5005256.0248034.9953017-.1158172 1.4079651-.4001585 3.6609055-2.3585803 5.4131231-6.7868038 4.3572813-11.0117687 0-.2223102-.1037448-.4297998-.1333862-.6521101.0065534-.1918247.0415152-.3816175.1037448-.563186l.1185655-.4149792c.3274774-1.4047335.5014054-2.8408818.518724-4.2831779.0473174-1.2749177-.1853938-2.5447117-.6817515-3.7199918-.7319952-1.4926306-2.2220041-2.4651174-3.8830194-2.5343371-1.9115196-.0241937-3.8029896.3916255-5.5281154 1.2152961l-.4446206-.1630275-.2371309-.0889241c-.4890826-.1630275-.9929859-.3408758-1.4820685-.4890826-.5588165-.1666197-1.128235-.2953578-1.7043787-.3853378-.3090906-.0467487-.6211081-.071512-.9337032-.0741034-.2074895 0-1.0374479 0-1.2449375 0-.3694304.0315514-.7331499.1112708-1.08191.2371309-.5519846.1796712-1.0578783.4781485-1.4820684.8744204-.436046.4242962-.788031.927132-1.0374479 1.4820685-.5105075 1.1710066-.7438147 2.444052-.6817515 3.7199919.003384 1.4480741.1774939 2.8906989.5187239 4.2979985zm2.727006-7.1287494c.0911961-.2019883.2222645-.3834676.3853378-.5335446.1221155-.1191808.2688054-.2102297.4297998-.2667723.0982129-.0152918.1982008-.0152918.2964137 0h.9633445.5928274c.436067.0692307.8668764.1682673 1.2893996.2964137.4594412.1333861.9040618.2964137 1.3783237.4594412h.2223102c.439814.1705776.8617681.3840367 1.2597582.6372894 1.1444219.8271011 2.5520205 1.2066782 3.9571229 1.0670893.5525932-.1173812.9903978-.5387 1.1288924-1.0863832s-.0464101-1.1264687-.4767823-1.4924159c.2762377-.0214307.5537206-.0214307.8299583 0 .6239239-.0290661 1.2057996.3142406 1.4820685.8744204.3018005.7829645.4233744 1.6238505.3556964 2.4602336-.0163712 1.2179902-.1654585 2.4305673-.4446205 3.6162471l-.0741034.3112344c-.1961142.5710265-.261946 1.1787049-.1926689 1.7784822 0 .3112343.1185654.607648.1778482.9040617.0699857.2583402.1244258.5206425.1630275.7854963.2418081 2.3554316-.6168114 4.6906578-2.3268475 6.3284324v-1.6747374c.0547299-2.5560672-1.8970825-4.7095669-4.4462054-4.9056466h-.2667723c-2.5247477.1352164-4.4897033 2.2442687-4.4462054 4.7722604v1.7340201c-1.6522626-1.6397978-2.4748047-3.9385578-2.2379234-6.2543289.0350613-.2643356.0845373-.5265584.1482068-.7854963.079853-.2978099.1441628-.5995714.1926689-.9040617.0702937-.5997733.0044375-1.2076773-.1926689-1.7784822v-.3112344c-.2936019-1.1830553-.442895-2.3973053-.4446205-3.6162471-.0765552-.8172103.0245614-1.6413106.2964137-2.4157716z" fill="#55311b" fill-rule="nonzero" mask="url(#a)"/></g></svg>

<?xml version="1.0" encoding="UTF-8"?>
<svg width="88px" height="88px" viewBox="0 0 88 88" version="1.1" xmlns="http://www.w3.org/2000/svg" xmlns:xlink="http://www.w3.org/1999/xlink">
    <title>sameday</title>
    <defs>
        <rect id="path-1" x="0" y="0" width="88" height="88"></rect>
    </defs>
    <g id="Design" stroke="none" stroke-width="1" fill="none" fill-rule="evenodd">
        <g id="Icons-for-tabs" transform="translate(-1465.000000, -127.000000)">
            <g id="Group-7" transform="translate(-3.000000, 0.000000)">
                <g id="Group-3" transform="translate(292.000000, 127.000000)">
                    <g id="sameday" transform="translate(1176.000000, 0.000000)">
                        <mask id="mask-2" fill="white">
                            <use xlink:href="#path-1"></use>
                        </mask>
                        <g id="Rectangle"></g>
                        <g id="SameDayCrown" mask="url(#mask-2)" fill="#A7958A">
                            <g transform="translate(12.800002, 15.200002)">
                                <path d="M60.0052575,13.2188796 C60.1526614,13.235109 60.3003999,13.2662295 60.4469672,13.3137468 C61.6092995,13.6892 62.2469342,14.936026 61.8713304,16.098191 L58.2166678,27.4062938 C57.841064,28.5686261 56.5943886,29.2064281 55.4322236,28.8306402 C54.2698913,28.4550197 53.6322566,27.208361 54.0078772,26.0460287 L57.662523,14.7379259 C57.9907936,13.7223282 58.9843058,13.1071136 60.0052575,13.2188796" id="Fill-3"></path>
                                <path d="M45.5598446,19.5527289 C45.7912403,19.5779933 46.0223013,19.6405689 46.2453312,19.7432998 L57.0381061,24.7177206 C58.1473997,25.2290331 58.6321092,26.5426175 58.1207968,27.6519111 C57.6096684,28.7612048 56.2958999,29.2459143 55.1866063,28.7347691 L44.3938314,23.7603483 C43.2845378,23.2490359 42.799661,21.9352842 43.3109734,20.8259905 C43.7195549,19.9397268 44.6404527,19.4520057 45.5598446,19.5527289" id="Fill-4"></path>
                                <path d="M10.2476643,50.6859005 C19.0577649,58.1541406 31.1842019,59.362317 41.0447015,54.64121 C42.2861735,54.0469097 42.6939184,52.4781711 41.8988577,51.3546557 C41.2709104,50.4673881 40.0936872,50.1658877 39.1154006,50.6398891 C35.058364,52.6058319 30.5738394,53.3522208 26.0668947,52.8589784 C12.8522456,51.4127137 3.2780207,39.4852135 4.72428532,26.2707318 C6.17054995,13.0560828 18.0980502,3.48185782 31.3125319,4.92812244 C42.0070933,6.09848582 51.343414,14.5773042 52.6775614,26.4437347 L57.1753038,26.9359733 C55.475558,5.91008994 33.3728399,-5.84758634 15.3977651,3.6280905 C-2.50503001,13.0662889 -5.19008955,37.5989123 10.2476643,50.6859005" id="Fill-5"></path>
                            </g>
                        </g>
                        <path d="M31.4277353,44.1617313 C31.4997488,44.341124 31.5398736,44.5317169 31.5463008,44.7249173 C31.5463008,44.9472276 31.4573767,45.1695378 31.4129146,45.3770274 C31.314725,45.7723485 31.2404866,46.173236 31.1906043,46.5775029 C30.7885348,50.4391379 32.5425057,54.2090361 35.7553752,56.3887961 C36.1483036,56.6560977 36.6140572,56.7958238 37.0892369,56.7889546 L37.3263678,56.7889546 C38.504982,56.5922651 39.3658148,55.5680625 39.3568016,54.373183 L39.3568016,51.4090461 C39.3367226,50.9490447 39.5004197,50.4999442 39.8118016,50.1607603 C40.1231836,49.8215764 40.556681,49.6201614 41.0167183,49.6009226 C41.9694074,49.7378902 42.6585263,50.5815778 42.6025316,51.5424323 L42.6025316,54.4028244 C42.614542,55.6591275 43.5874994,56.6965192 44.8404549,56.7889546 C45.3409805,56.813758 45.8357566,56.6731374 46.24842,56.3887961 C49.9093255,54.0302158 51.6615431,49.6019923 50.6057013,45.3770274 C50.6057013,45.1547172 50.5019565,44.9472276 50.4723151,44.7249173 C50.4788685,44.5330926 50.5138303,44.3432998 50.5760599,44.1617313 L50.6946254,43.7467521 C51.0221028,42.3420186 51.1960308,40.9058703 51.2133494,39.4635742 C51.2606668,38.1886565 51.0279556,36.9188625 50.5315979,35.7435824 C49.7996027,34.2509518 48.3095938,33.278465 46.6485785,33.2092453 C44.7370589,33.1850516 42.8455889,33.6008708 41.1204631,34.4245414 L40.6758425,34.2615139 L40.4387116,34.1725898 C39.949629,34.0095623 39.4457257,33.831714 38.9566431,33.6835072 C38.3978266,33.5168875 37.8284081,33.3881494 37.2522644,33.2981694 C36.9431738,33.2514207 36.6311563,33.2266574 36.3185612,33.224066 C36.1110717,33.224066 35.2811133,33.224066 35.0736237,33.224066 C34.7041933,33.2556174 34.3404738,33.3353368 33.9917137,33.4611969 C33.4397291,33.6408681 32.9338354,33.9393454 32.5096453,34.3356173 C32.0735993,34.7599135 31.7216143,35.2627493 31.4721974,35.8176858 C30.9616899,36.9886924 30.7283827,38.2617378 30.7904459,39.5376777 C30.7938299,40.9857518 30.9679398,42.4283766 31.3091698,43.8356762 L31.4277353,44.1617313 Z M34.1547413,37.0329819 C34.2459374,36.8309936 34.3770058,36.6495143 34.5400791,36.4994373 C34.6621946,36.3802565 34.8088845,36.2892076 34.9698789,36.232665 C35.0680918,36.2173732 35.1680797,36.2173732 35.2662926,36.232665 C35.4589615,36.232665 36.0814303,36.232665 36.2296371,36.232665 L36.8224645,36.232665 C37.2585315,36.3018957 37.6893409,36.4009323 38.1118641,36.5290787 C38.5713053,36.6624648 39.0159259,36.8254924 39.4901878,36.9885199 L39.712498,36.9885199 C40.152312,37.1590975 40.5742661,37.3725566 40.9722562,37.6258093 C42.1166781,38.4529104 43.5242767,38.8324875 44.9293791,38.6928986 C45.4819723,38.5755174 45.9197769,38.1541986 46.0582715,37.6065154 C46.1967661,37.0588322 46.0118614,36.4800467 45.5814892,36.1140995 C45.8577269,36.0926688 46.1352098,36.0926688 46.4114475,36.1140995 C47.0353714,36.0850334 47.6172471,36.4283401 47.893516,36.9885199 C48.1953165,37.7714844 48.3168904,38.6123704 48.2492124,39.4487535 C48.2328412,40.6667437 48.0837539,41.8793208 47.8045919,43.0650006 L47.7304885,43.376235 C47.5343743,43.9472615 47.4685425,44.5549399 47.5378196,45.1547172 C47.5378196,45.4659515 47.656385,45.7623652 47.7156678,46.0587789 C47.7856535,46.3171191 47.8400936,46.5794214 47.8786953,46.8442752 C48.1205034,49.1997068 47.2618839,51.534933 45.5518478,53.1727076 L45.5518478,51.4979702 C45.6065777,48.941903 43.6547653,46.7884033 41.1056424,46.5923236 L40.8388701,46.5923236 C38.3141224,46.72754 36.3491668,48.8365923 36.3926647,51.364584 L36.3926647,53.0986041 C34.7404021,51.4588063 33.91786,49.1600463 34.1547413,46.8442752 C34.1898026,46.5799396 34.2392786,46.3177168 34.3029481,46.0587789 C34.3828011,45.760969 34.4471109,45.4592075 34.495617,45.1547172 C34.5659107,44.5549439 34.5000545,43.9470399 34.3029481,43.376235 L34.3029481,43.0650006 C34.0093462,41.8819453 33.8600531,40.6676953 33.8583276,39.4487535 C33.7817724,38.6315432 33.882889,37.8074429 34.1547413,37.0329819 L34.1547413,37.0329819 Z" id="Shape" fill="#55311B" fill-rule="nonzero" mask="url(#mask-2)"></path>
                    </g>
                </g>
            </g>
        </g>
    </g>
</svg>
